dist/img/svg/right-quote-sign.svg

<svg width="386" height="493" viewBox="0 0 386 493" fill="none" xmlns="http://www.w3.org/2000/svg">
<g opacity="0.04" clip-path="url(#clip0_94:620)">
<path d="M360.719 28.9199H207.01C193.054 28.9199 181.728 40.2459 181.728 54.201V207.91C181.728 221.866 193.054 233.191 207.01 233.191H280.578C279.617 273.439 270.263 305.647 252.566 329.866C238.611 348.979 217.476 364.805 189.212 377.294C176.217 383.007 170.605 398.378 176.672 411.221L194.875 449.649C200.74 461.985 215.251 467.396 227.791 461.985C261.263 447.525 289.528 429.221 312.583 406.974C340.697 379.822 359.96 349.181 370.376 315.001C380.792 280.821 386 234.203 386 175.045V54.201C386 40.2464 374.673 28.9199 360.719 28.9199Z" fill="#050C33"/>
<path d="M-53.3859 461.884C-20.3182 447.474 7.79438 429.171 31.0025 406.974C59.3679 379.822 78.7332 349.282 89.149 315.355C99.5649 281.428 104.772 234.658 104.772 175.045V54.201C104.772 40.2459 93.4468 28.9199 79.4911 28.9199H-74.2181C-88.1733 28.9199 -99.4992 40.2459 -99.4992 54.201V207.91C-99.4992 221.866 -88.1733 233.191 -74.2181 233.191H-0.650017C-1.61069 273.439 -10.9647 305.647 -28.6615 329.866C-42.6167 348.979 -63.7517 364.805 -92.016 377.294C-105.01 383.007 -110.623 398.378 -104.555 411.221L-86.4036 449.548C-80.5379 461.884 -65.9254 467.346 -53.3859 461.884Z" fill="#050C33"/>
</g>
<defs>
<clipPath id="clip0_94:620">
<rect width="493" height="493" fill="white" transform="translate(-107)"/>
</clipPath>
</defs>
</svg>

<svg width="386" height="493" fill="none" xmlns="http://www.w3.org/2000/svg"><g opacity=".04" clip-path="url(#clip0_94:620)" fill="#050C33"><path d="M360.719 28.92H207.01c-13.956 0-25.282 11.326-25.282 25.281V207.91c0 13.956 11.326 25.281 25.282 25.281h73.568c-.961 40.248-10.315 72.456-28.012 96.675-13.955 19.113-35.09 34.939-63.354 47.428-12.995 5.713-18.607 21.084-12.54 33.927l18.203 38.428c5.865 12.336 20.376 17.747 32.916 12.336 33.472-14.46 61.737-32.764 84.792-55.011 28.114-27.152 47.377-57.793 57.793-91.973C380.792 280.821 386 234.203 386 175.045V54.201c0-13.955-11.327-25.281-25.281-25.281zM-53.386 461.884c33.068-14.41 61.18-32.713 84.389-54.91 28.365-27.152 47.73-57.692 58.146-91.619 10.416-33.927 15.623-80.697 15.623-140.31V54.201c0-13.955-11.325-25.281-25.28-25.281h-153.71C-88.173 28.92-99.5 40.246-99.5 54.2v153.71c0 13.956 11.326 25.281 25.28 25.281H-.65c-.96 40.248-10.315 72.456-28.012 96.675-13.955 19.113-35.09 34.939-63.354 47.428-12.994 5.713-18.607 21.084-12.539 33.927l18.151 38.327c5.866 12.336 20.479 17.798 33.018 12.336z"/></g><defs><clipPath id="clip0_94:620"><path fill="#fff" transform="translate(-107)" d="M0 0h493v493H0z"/></clipPath></defs></svg>
